X: 14496
T: Gan Ainm
R: slide
M: 12/8
K: Dmajor
F3 FED A3 AFA|BGB BAG FEF DED|
F3 FED AFA AFA|1 BAB cBA d3 dAG:|2 BAB cBA d3 d2 A||
dfe dcB AFA AFA|BGB BAG FEF DED|
dfe dcB AFA AFA|1 BGB cBA d3 dBA:|2 BGB cBA d3 d3||

